.local/share/icons/Gruvbox-Plus-Dark/panel/22/odrive-tray-sync.svg

<svg width="22" height="22" version="1.1" xmlns="http://www.w3.org/2000/svg">
  <defs>
    <style id="current-color-scheme" type="text/css">.ColorScheme-Text { color:#ebdbb2; } .ColorScheme-Highlight { color:#458588; } .ColorScheme-NeutralText { color:#fe8019; } .ColorScheme-PositiveText { color:#689d6a; } .ColorScheme-NegativeText { color:#fb4934; }</style>
  </defs>
  <path class="ColorScheme-Text" d="m8 3 5.305 9.643c0.9455-1.043 2.287-1.64 3.695-1.643 0.7143 1.45e-4 1.42 0.1533 2.07 0.4492l-5.07-8.449zm-0.5 1-5.5 10 3 5 5.5-9.5zm9.5 8c-2.209 0-4 1.791-4 4 0 2.209 1.791 4 4 4 2.209 0 4-1.791 4-4 0-2.209-1.791-4-4-4zm0 1.143c1.578 0 2.857 1.279 2.857 2.857h-0.9531c-4.1e-4 -1.051-0.8529-1.904-1.904-1.904zm-4.58 0.8633-3.42 0.0039-3 4.99h7.016c-0.6547-0.8635-1.011-1.916-1.016-3 0.0016-0.6865 0.1445-1.365 0.4199-1.994zm1.723 1.994h0.9531c4.1e-4 1.051 0.8529 1.904 1.904 1.904v0.9531c-1.578 0-2.857-1.279-2.857-2.857z" fill="currentColor"/>
</svg>

<svg xmlns="http://www.w3.org/2000/svg" width="22" height="22" version="1.1">
 <defs>
  <style id="current-color-scheme" type="text/css">
   .ColorScheme-Text { color:#ebdbb2; } .ColorScheme-Highlight { color:#458588; }
  </style>
 </defs>
 <path style="fill:currentColor" class="ColorScheme-Text" d="M 8 3 L 13.302734 12.642578 A 5 5 0 0 1 17 11 A 5 5 0 0 1 19.072266 11.455078 L 14 3 L 8 3 z M 7.5 4 L 2 14 L 5 19 L 10.5 9.5 L 7.5 4 z M 17 12 C 14.7909 12 13 13.7909 13 16 C 13 18.2091 14.7909 20 17 20 C 19.2091 20 21 18.2091 21 16 C 21 13.7909 19.2091 12 17 12 z M 17 13 A 3 3 0 0 1 20 16 L 19 16 A 2 2 0 0 0 17 14 L 17 13 z M 12.416016 14.005859 L 9 14.009766 L 6 19 L 13.007812 19 A 5 5 0 0 1 12 16 A 5 5 0 0 1 12.416016 14.005859 z M 14 16 L 15 16 A 2 2 0 0 0 17 18 L 17 19 A 3 3 0 0 1 14 16 z"/>
</svg>
